assets/images/Whatsapp.svg

<svg width="22" height="22" viewBox="0 0 22 22" fill="none" xmlns="http://www.w3.org/2000/svg">
<path fill-rule="evenodd" clip-rule="evenodd" d="M0.0925999 10.9023C0.0971999 1.29017 11.7617 -3.65161 18.81 3.16197L18.7962 3.19777C20.8633 5.25657 22 7.99647 22 10.9078C21.9963 19.2027 13.0533 24.4002 5.8071 20.4861L0 22.0004L1.5547 16.3519C0.5958 14.6973 0.0925999 12.8237 0.0925999 10.9023ZM6.4075 18.6729C12.4822 22.2442 20.163 17.8745 20.1685 10.8776C20.1685 8.45757 19.2207 6.17417 17.5019 4.47007C15.7822 2.75127 13.4988 1.80257 11.066 1.80257C3.905 1.80257 -0.4382 9.66757 3.3422 15.6855L3.5612 16.0292L2.64 19.3705L6.0775 18.4767L6.4075 18.6729ZM16.04 13.1842L16.0482 13.1155C16.0777 13.1287 16.106 13.1414 16.1332 13.1535C16.3604 13.2546 16.5101 13.3213 16.5707 13.4317C16.6395 13.5555 16.6395 14.0917 16.4057 14.738C16.1775 15.3842 15.0839 15.9617 14.5577 16.0452C14.0856 16.113 13.4889 16.1423 12.8344 15.9342C10.4107 15.1019 9.0852 14.5024 6.5974 11.2464C5.3315 9.46257 4.9584 7.78507 6.4379 6.15887C6.778 5.80507 7.1639 5.79767 7.6919 5.84357C7.7085 5.84357 7.7257 5.84287 7.7434 5.84227C7.9059 5.83607 8.1095 5.82827 8.3079 6.31107C8.4084 6.54657 8.57 6.93787 8.7256 7.31467C8.925 7.79727 9.1144 8.25597 9.153 8.33317C9.2209 8.46977 9.2676 8.62107 9.176 8.81357C8.9603 9.22157 8.7358 9.46937 8.5682 9.65427C8.3383 9.90787 8.2158 10.0431 8.3711 10.3114C8.5325 10.5864 9.0788 11.4802 9.8928 12.2089C10.7674 12.9915 11.5284 13.3213 11.9145 13.4887C11.9897 13.5213 12.0507 13.5477 12.0955 13.5702C12.3678 13.6939 12.5273 13.6802 12.6877 13.5014C12.8463 13.3199 13.3725 12.7067 13.553 12.4362C13.7998 12.0661 14.0021 12.1671 15.7395 13.0343C15.8349 13.082 15.935 13.1319 16.04 13.1842Z" fill="white"/>
</svg>

<svg xmlns="http://www.w3.org/2000/svg" width="22" height="22" fill="none"><path fill="#fff" fill-rule="evenodd" d="M.093 10.902C.097 1.29 11.762-3.652 18.81 3.162l-.014.036A10.8 10.8 0 0 1 22 10.908c-.004 8.295-8.947 13.492-16.193 9.578L0 22l1.555-5.648a10.85 10.85 0 0 1-1.462-5.45m6.315 7.77c6.074 3.572 13.755-.797 13.76-7.794 0-2.42-.947-4.704-2.666-6.408a9.04 9.04 0 0 0-6.436-2.667c-7.161 0-11.504 7.865-7.724 13.882l.22.344-.922 3.342 3.437-.894zm9.632-5.488.008-.068.085.037c.227.102.377.168.438.279.069.123.069.66-.165 1.306-.229.646-1.322 1.224-1.848 1.307-.472.068-1.07.097-1.724-.11-2.423-.833-3.749-1.433-6.237-4.689-1.266-1.783-1.639-3.46-.16-5.087.341-.354.727-.361 1.255-.315l.051-.002c.163-.006.367-.014.565.47.1.235.262.626.418 1.003.199.482.388.941.427 1.018.068.137.115.288.023.48a3.8 3.8 0 0 1-.608.841c-.23.254-.352.39-.197.657.162.275.708 1.17 1.522 1.898.874.783 1.635 1.112 2.021 1.28q.114.048.181.081c.273.124.432.11.593-.069.158-.181.684-.794.865-1.065.247-.37.45-.269 2.186.598z" clip-rule="evenodd"/></svg>
